X:1
T:Zovko, 11.11 D
T:Zovko, 11.11 D
T:James Cutler Dunn Parker (1828–1916)
T:Public Domain Courtesy of the Cyber Hymnal™
C:James Cutler Dunn Parker (1828–1916)
Z:Public Domain
Z:Courtesy of the Cyber Hymnal™
%%score ( 1 2 ) ( 3 4 )
L:1/8
Q:1/4=115
M:4/4
K:C
V:1 treble 
V:2 treble 
V:3 bass 
V:4 bass 
V:1
 G3 E C2 E2 | (G2 c2) G4 | [EG]3 [Ec] [Ge]2 [Fd]2 | [Ec]8 | A3 E C2 E2 | (A2 c2) A4 | %6
 [CE]3 [CA] [Ec]2 [DB]2 | [CA]8 | [CA]3 [CD] [CB]2 [CA]2 | ([B,G]2 [^A,E]2) [B,D]4 | %10
 [CE]3 [D^F] [DG]2 [CE]2 | [B,D]8 | [CD]3 [Cc] [CB]2 [CA]2 | (G2 ^F2) [^A,E]4 | %14
 [B,D]2 [B,G]2 [CA]3 [B,G] | [B,G]8 |] %16
V:2
 G3 E C2 E2 | G2 c2 G4 | x8 | x8 | A3 E C2 E2 | A2 c2 A4 | x8 | x8 | x8 | x8 | x8 | x8 | x8 | %13
 B,4 x4 | x8 | x8 |] %16
V:3
 G,3 E, C,2 E,2 | G,2 C2 G,4 | [G,C]3 [G,C] [G,C]2 [G,B,]2 | [C,C]8 | A,3 E, C,2 E,2 | A,2 C2 A,4 | %6
 [E,A,]3 [E,A,] [E,A,]2 [E,^G,]2 | [A,,A,]8 | [D,^F,]3 [D,F,] [D,F,]2 [D,F,]2 | [G,,G,]4 [G,,G,]4 | %10
 [C,G,]3 [C,A,] [B,,G,]2 [C,G,]2 | [G,,G,]8 | [D,^F,]3 [D,F,] [D,F,]2 [^D,F,]2 | [E,G,]4 [^C,G,]4 | %14
 [D,G,]2 [D,G,]2 [D,^F,]3 [G,,G,] | [G,,G,]8 |] %16
V:4
 G,3 E, C,2 E,2 | (G,2 C2) G,4 | x8 | x8 | A,3 E, C,2 E,2 | (A,2 C2) A,4 | x8 | x8 | x8 | x8 | x8 | %11
 x8 | x8 | x8 | x8 | x8 |] %16

